X: 8
T: Ballyket Courthouse, The
M: 4/4
L: 1/8
R: reel
K: Gmaj
Bc |\
d2 g/f/e dBAG | EAAG A2 Bc | dBeB d2 B/A/G | DG-GF G2 A/B/c |
dge^c dBAG | EA-AG A2 G/A/B | dBeB dBAG | DGGF G2 ||
B/c/d |\
g2 e/f/g gedg | eaa^g a2 ef | gGdg edBd | eggf gG B/c/d |
gafg efdg | ea-a^g aA B/c/d | g/a/g fg e/f/e Bd | eg-gf g2 |]
